X: 21132
Q: "Slowly"
M: C|
L: 1/16
K: G
c4 c2e2 dB3A2G2 | ~A3B {d}cB{B}AG {F}E4 B3A |
{F}G4 G2AB D4 E3F | G3AB2d2 {f}g4 f2e2 |\
d3e edcB ~A3B ce/d/ f/e/d/c/ | B4 {cB}TA4 {GBA}G4 :|
|: d2ef |\
g4 g2ab d4 e3f | {a}g3f(f2a2) {g}b4 ~g3a |\
b3a agfe d2e>f g2(3GBd | {d}c2B2{B}A2G2 {F}E4 B3A |
~d3e edcB ~A3B cd/g/ f/e/(3(d/e/c/) | B4 {cB}TA4 {GBA} G4 |]


